markets/ZEC.svg

<svg width="42" height="42" viewBox="0 0 42 42" fill="none" xmlns="http://www.w3.org/2000/svg">
<g clip-path="url(#clip0_7698_9592)">
<ellipse cx="21.0423" cy="21" rx="20.9578" ry="21" fill="#06061B"/>
<path d="M20.8698 0.0318604C9.3609 0.0318604 0.00012207 9.42373 0.00012207 20.9708C0.00012207 32.5179 9.3609 41.9098 20.8698 41.9098C32.3786 41.9098 41.7394 32.5179 41.7394 20.9708C41.7394 9.42373 32.3786 0.0318604 20.8698 0.0318604ZM20.8698 38.454C11.259 38.454 3.44444 30.6135 3.44444 20.9708C3.44444 11.3281 11.259 3.48762 20.8698 3.48762C30.4805 3.48762 38.2951 11.3281 38.2951 20.9708C38.2951 30.6135 30.4805 38.454 20.8698 38.454V38.454Z" fill="#231F20"/>
<path d="M20.8699 37.4693C29.9516 37.4693 37.3138 30.0827 37.3138 20.9708C37.3138 11.859 29.9516 4.47235 20.8699 4.47235C11.7882 4.47235 4.42603 11.859 4.42603 20.9708C4.42603 30.0827 11.7882 37.4693 20.8699 37.4693Z" fill="#F4B728"/>
<path d="M13.4252 27.4828V30.6785H19.1194V34.1807H22.6193V30.6785H28.3135V26.4517H19.4805L28.3135 14.4308V11.2352H22.6193V7.74225H19.1194V11.2352H13.4252V15.4713H22.2582L13.4252 27.4828Z" fill="#231F20"/>
</g>
<defs>
<clipPath id="clip0_7698_9592">
<rect width="42" height="42" rx="21" fill="white"/>
</clipPath>
</defs>
</svg>

<svg xmlns="http://www.w3.org/2000/svg" width="42" height="42" fill="none"><g clip-path="url(#a)"><ellipse cx="21.042" cy="21" fill="#06061B" rx="20.958" ry="21"/><path fill="#231F20" d="M20.87.032C9.36.032 0 9.424 0 20.971S9.36 41.91 20.87 41.91c11.509 0 20.87-9.392 20.87-20.94C41.74 9.425 32.378.033 20.87.033Zm0 38.422c-9.611 0-17.426-7.84-17.426-17.483S11.26 3.488 20.87 3.488s17.425 7.84 17.425 17.483S30.48 38.454 20.87 38.454Z"/><path fill="#F4B728" d="M20.87 37.47c9.081 0 16.443-7.387 16.443-16.5 0-9.111-7.362-16.498-16.443-16.498-9.082 0-16.444 7.387-16.444 16.499 0 9.112 7.362 16.498 16.444 16.498Z"/><path fill="#231F20" d="M13.425 27.483v3.196h5.694v3.502h3.5v-3.502h5.694v-4.227H19.48l8.833-12.021v-3.196H22.62V7.742h-3.5v3.493h-5.694v4.236h8.833l-8.833 12.012Z"/></g><defs><clipPath id="a"><rect width="42" height="42" fill="#fff" rx="21"/></clipPath></defs></svg>
